packages/core/src/svgs/tokens/mono/DUST.svg

<svg width="24" height="24" viewBox="0 0 24 24" fill="none" xmlns="http://www.w3.org/2000/svg">
<path d="M9.14307 2H12.5716V5.42854H9.14307V2Z" fill="white"/>
<path d="M6.28516 3.14294H10.8565V6.5715H6.28516V3.14294Z" fill="white"/>
<path d="M5.14258 4.85718H9.71402V7.71431H5.14258V4.85718Z" fill="white"/>
<path d="M3.42871 7.14294H8.00011V10.5715H3.42871V7.14294Z" fill="white"/>
<path d="M7.4292 8.85718H12.572V10.5714H7.4292V8.85718Z" fill="white"/>
<path d="M7.42829 10.0001H10.8568V11.7144H7.42829V10.0001ZM5.14258 10.0001H6.85686V14.5714H5.14258V10.0001Z" fill="white"/>
<path d="M3.42871 11.7144H5.71441V13.4286H3.42871V11.7144ZM6.28584 12.8571H8.00011V18.5714H6.28584V12.8571Z" fill="white"/>
<path d="M7.4292 15.7143H9.14347V20.2856H7.4292V15.7143ZM9.14347 14H10.8577V22H9.14347V14Z" fill="white"/>
<path d="M10.2856 12.8571H13.7143V14.5713H10.2856V12.8571ZM10.2856 15.7142H12.5714V17.4285H10.2856V15.7142ZM10.2856 18H13.7143V21.9999H10.2856V18ZM14.8571 2H11.4286V5.42854H14.8571V2Z" fill="white"/>
<path d="M17.714 3.14294H13.1426V6.5715H17.714V3.14294Z" fill="white"/>
<path d="M18.8566 4.85718H14.2852V7.71431H18.8566V4.85718Z" fill="white"/>
<path d="M20.5713 7.14294H16V10.5715H20.5713V7.14294Z" fill="white"/>
<path d="M16.5715 8.85718H11.4287V10.5714H16.5715V8.85718Z" fill="white"/>
<path d="M16.5711 10.0001H13.1426V11.7144H16.5711V10.0001ZM18.8568 10.0001H17.1426V14.5714H18.8568V10.0001Z" fill="white"/>
<path d="M20.5713 11.7144H18.2856V13.4286H20.5713V11.7144ZM17.7143 12.8571H16V18.5714H17.7143V12.8571Z" fill="white"/>
<path d="M16.5711 15.7143H14.8568V20.2856H16.5711V15.7143ZM14.8568 14H13.1426V22H14.8568V14Z" fill="white"/>
<path d="M13.7144 15.7142H11.4287V17.4285H13.7144V15.7142Z" fill="white"/>
</svg>

<svg xmlns="http://www.w3.org/2000/svg" width="24" height="24" fill="none" viewBox="0 0 24 24">
    <path fill="#fff" d="M9.143 2h3.429v3.429H9.143z"/>
    <path fill="#fff" d="M6.285 3.143h4.572v3.429H6.285z"/>
    <path fill="#fff" d="M5.143 4.857h4.571v2.857H5.143z"/>
    <path fill="#fff" d="M3.429 7.143H8v3.429H3.43z"/>
    <path fill="#fff" d="M7.43 8.857h5.142v1.714H7.429z"/>
    <path fill="#fff" d="M7.428 10h3.429v1.714H7.428zm-2.285 0h1.714v4.571H5.143z"/>
    <path fill="#fff" d="M3.429 11.714h2.285v1.715H3.43zm2.857 1.143H8v5.714H6.286z"/>
    <path fill="#fff" d="M7.43 15.714h1.713v4.572H7.43zM9.142 14h1.715v8H9.143z"/>
    <path fill="#fff" d="M10.286 12.857h3.428v1.714h-3.428zm0 2.857h2.285v1.714h-2.285zm0 2.286h3.428v4h-3.428zm4.571-16H11.43v3.429h3.428z"/>
    <path fill="#fff" d="M17.714 3.143h-4.571v3.429h4.571z"/>
    <path fill="#fff" d="M18.857 4.857h-4.572v2.857h4.572z"/>
    <path fill="#fff" d="M20.571 7.143H16v3.429h4.571z"/>
    <path fill="#fff" d="M16.572 8.857h-5.143v1.714h5.143z"/>
    <path fill="#fff" d="M16.571 10h-3.428v1.714h3.428zm2.286 0h-1.714v4.571h1.714z"/>
    <path fill="#fff" d="M20.571 11.714h-2.285v1.715h2.285zm-2.857 1.143H16v5.714h1.714z"/>
    <path fill="#fff" d="M16.571 15.714h-1.714v4.572h1.714zM14.857 14h-1.714v8h1.714z"/>
    <path fill="#fff" d="M13.714 15.714H11.43v1.714h2.285z"/>
</svg>
